X:1
T:Paddy Wack. JBa.88
T:Paddy Wack. JBa.88
T:Distinctly different hand
C:Distinctly different hand
L:1/8
Q:3/8=120
M:6/8
K:G
V:1 treble 
V:1
"^Numbers shown are in MS" GBd gfg | edc BAG | GBd gfg | fdd def | gfg fdB | cec dBG | BBB cAd | %7
 BGG"^2" G3 :: (B/c/)dB (c/d/)ec | dcB{B} A2 G | Bcd efg | fdd def | gfg fdB | cec dBG | BBB cAd | %15
 BGG G3 :| %16

